flaticon/user-interface/browser-54.svg

<svg xmlns="http://www.w3.org/2000/svg" width="32" height="32" viewBox="0 0 24 24">
    <path d="M2.800781 1.199219C1.917969 1.199219 1.199219 1.917969 1.199219 2.800781 1.199219 3.683594 1.917969 4.398438 2.800781 4.398438 3.683594 4.398438 4.398438 3.683594 4.398438 2.800781 4.398438 1.917969 3.683594 1.199219 2.800781 1.199219zM2.800781 3.601562C2.359375 3.601562 2 3.242188 2 2.800781 2 2.359375 2.359375 2 2.800781 2 3.242188 2 3.601562 2.359375 3.601562 2.800781 3.601562 3.242188 3.242188 3.601562 2.800781 3.601562zM6.398438 1.199219C5.519531 1.199219 4.800781 1.917969 4.800781 2.800781 4.800781 3.683594 5.519531 4.398438 6.398438 4.398438 7.28125 4.398438 8 3.683594 8 2.800781 8 1.917969 7.28125 1.199219 6.398438 1.199219zM6.398438 3.601562C5.957031 3.601562 5.601562 3.242188 5.601562 2.800781 5.601562 2.359375 5.957031 2 6.398438 2 6.839844 2 7.199219 2.359375 7.199219 2.800781 7.199219 3.242188 6.839844 3.601562 6.398438 3.601562zM10 1.199219C9.117188 1.199219 8.398438 1.917969 8.398438 2.800781 8.398438 3.683594 9.117188 4.398438 10 4.398438 10.882812 4.398438 11.601562 3.683594 11.601562 2.800781 11.601562 1.917969 10.882812 1.199219 10 1.199219zM10 3.601562C9.558594 3.601562 9.199219 3.242188 9.199219 2.800781 9.199219 2.359375 9.558594 2 10 2 10.441406 2 10.800781 2.359375 10.800781 2.800781 10.800781 3.242188 10.441406 3.601562 10 3.601562zM10 3.601562"/>
    <path d="M 0 0 L 0 24 L 24 24 L 24 0 Z M 0.800781 0.800781 L 23.199219 0.800781 L 23.199219 4.800781 L 0.800781 4.800781 Z M 23.199219 23.199219 L 0.800781 23.199219 L 0.800781 5.601562 L 23.199219 5.601562 Z M 23.199219 23.199219"/>
    <path d="M2.429688 21.351562C2.472656 21.449219 2.550781 21.527344 2.648438 21.570312 2.695312 21.589844 2.746094 21.601562 2.800781 21.601562L4.800781 21.601562C5.019531 21.601562 5.199219 21.421875 5.199219 21.199219 5.199219 20.980469 5.019531 20.800781 4.800781 20.800781L3.765625 20.800781 7.082031 17.484375C7.238281 17.328125 7.238281 17.074219 7.082031 16.917969 6.925781 16.761719 6.671875 16.761719 6.515625 16.917969L3.199219 20.234375 3.199219 19.199219C3.199219 18.980469 3.019531 18.800781 2.800781 18.800781 2.578125 18.800781 2.398438 18.980469 2.398438 19.199219L2.398438 21.199219C2.398438 21.253906 2.410156 21.304688 2.429688 21.351562zM17.199219 12C17.300781 12 17.40625 11.960938 17.484375 11.882812L20.800781 8.566406 20.800781 9.601562C20.800781 9.820312 20.980469 10 21.199219 10 21.421875 10 21.601562 9.820312 21.601562 9.601562L21.601562 7.601562C21.601562 7.546875 21.589844 7.496094 21.570312 7.445312 21.527344 7.347656 21.449219 7.269531 21.351562 7.230469 21.304688 7.210938 21.253906 7.199219 21.199219 7.199219L19.199219 7.199219C18.980469 7.199219 18.800781 7.378906 18.800781 7.601562 18.800781 7.820312 18.980469 8 19.199219 8L20.234375 8 16.917969 11.316406C16.761719 11.472656 16.761719 11.726562 16.917969 11.882812 16.996094 11.960938 17.097656 12 17.199219 12zM17.199219 12"/>
</svg>

<svg xmlns="http://www.w3.org/2000/svg" width="32" height="32" viewBox="0 0 24 24">
    <path d="M2.8 1.2c-.882 0-1.6.718-1.6 1.6a1.6 1.6 0 1 0 1.6-1.6zm0 2.402A.802.802 0 0 1 2.8 2a.802.802 0 0 1 0 1.602zm0 0M6.398 1.2A1.6 1.6 0 1 0 8 2.801c0-.884-.719-1.603-1.602-1.603zm0 2.402a.799.799 0 0 1-.796-.801.799.799 0 1 1 1.597 0c0 .441-.36.8-.8.8zm0 0M10 1.2c-.883 0-1.602.718-1.602 1.6A1.6 1.6 0 0 0 10 4.399a1.6 1.6 0 0 0 1.602-1.597c0-.883-.72-1.602-1.602-1.602zm0 2.402A.802.802 0 0 1 10 2a.802.802 0 0 1 0 1.602zm0 0"/>
    <path d="M0 0v24h24V0zm.8.8h22.4v4H.8zm22.4 22.4H.8V5.601h22.4zm0 0"/>
    <path d="M2.43 21.352a.427.427 0 0 0 .218.218c.047.02.098.032.153.032h2a.401.401 0 0 0 0-.801H3.766l3.316-3.317a.4.4 0 0 0-.566-.566l-3.317 3.316V19.2a.4.4 0 0 0-.8 0v2c0 .055.011.106.03.153zm0 0M17.2 12c.1 0 .206-.04.284-.117l3.317-3.317v1.036a.4.4 0 0 0 .8 0v-2A.406.406 0 0 0 21.2 7.2h-2a.401.401 0 0 0 0 .8h1.035l-3.316 3.316a.4.4 0 0 0 .281.684zm0 0"/>
</svg>
